build/img/svg/q-icon.svg

<svg width="26" height="20" viewBox="0 0 26 20" fill="none" xmlns="http://www.w3.org/2000/svg">
<path d="M20.4042 20C18.175 20 16.5599 19.1607 15.5591 17.482C15.1041 16.7626 14.7402 15.8753 14.4672 14.8201C14.1942 13.765 14.0577 12.6619 14.0577 11.5108C14.0577 9.01679 14.6492 6.76259 15.832 4.7482C17.0604 2.73381 18.8574 1.15108 21.2231 0L21.8373 1.29496C20.5179 1.8705 19.3578 2.75779 18.357 3.95683C17.4016 5.15588 16.8329 6.3789 16.6509 7.6259C16.5144 8.20144 16.4462 8.753 16.4462 9.28058C16.4462 9.76019 16.5144 10.2158 16.6509 10.6475C17.6518 9.4964 18.9711 8.92086 20.6089 8.92086C22.2012 8.92086 23.4978 9.42446 24.4987 10.4317C25.4996 11.3909 26 12.7338 26 14.4604C26 16.0911 25.4768 17.4341 24.4304 18.4892C23.3841 19.4964 22.042 20 20.4042 20ZM6.34646 20C4.11724 20 2.50219 19.1607 1.50131 17.482C1.04637 16.7626 0.682414 15.8753 0.409448 14.8201C0.136483 13.765 0 12.6619 0 11.5108C0 9.01679 0.591426 6.76259 1.77428 4.7482C3.00262 2.73381 4.79965 1.15108 7.16535 0L7.77953 1.29496C6.46019 1.8705 5.30009 2.75779 4.29921 3.95683C3.34383 5.15588 2.77515 6.3789 2.59318 7.6259C2.45669 8.20144 2.38845 8.753 2.38845 9.28058C2.38845 9.76019 2.45669 10.2158 2.59318 10.6475C3.59405 9.4964 4.91339 8.92086 6.55118 8.92086C8.14348 8.92086 9.44007 9.42446 10.4409 10.4317C11.4418 11.3909 11.9423 12.7338 11.9423 14.4604C11.9423 16.0911 11.4191 17.4341 10.3727 18.4892C9.32633 19.4964 7.98425 20 6.34646 20Z" fill="#A09F9F"/>
</svg>

<svg width="26" height="20" fill="none" xmlns="http://www.w3.org/2000/svg"><path d="M20.404 20c-2.229 0-3.844-.84-4.845-2.518-.455-.72-.819-1.607-1.092-2.662a13.16 13.16 0 01-.41-3.31c0-2.493.592-4.747 1.775-6.762C17.06 2.734 18.857 1.151 21.223 0l.614 1.295c-1.32.576-2.48 1.463-3.48 2.662-.955 1.199-1.524 2.422-1.706 3.669a7.17 7.17 0 00-.205 1.655c0 .48.068.935.205 1.367 1-1.152 2.32-1.727 3.958-1.727 1.592 0 2.889.503 3.89 1.51 1 .96 1.501 2.303 1.501 4.03 0 1.63-.523 2.973-1.57 4.028C23.384 19.496 22.042 20 20.404 20zM6.346 20c-2.229 0-3.844-.84-4.845-2.518-.455-.72-.819-1.607-1.092-2.662A13.162 13.162 0 010 11.51c0-2.493.591-4.747 1.774-6.762C3.003 2.734 4.8 1.151 7.165 0l.615 1.295C6.46 1.871 5.3 2.758 4.3 3.957c-.956 1.199-1.525 2.422-1.707 3.669a7.17 7.17 0 00-.205 1.655c0 .48.069.935.205 1.367C3.594 9.496 4.913 8.92 6.551 8.92c1.592 0 2.89.503 3.89 1.51 1 .96 1.501 2.303 1.501 4.03 0 1.63-.523 2.973-1.57 4.028C9.327 19.496 7.985 20 6.347 20z" fill="#A09F9F"/></svg>
